X: 5400
T: Budgen, The
R: reel
M: 4/4
K: Dmajor
D2FD B,DA,B,|DEFD EGFE|DFAF GBdB|Acec dBAF|
D2FD B,DA,B,|DEFD EGFE|DFAF GBdB|1 AFEF D3C:|2 Acec dage||
f3d edBd|f2df edBd|ABdA BdAB|dABd ABde|
f3d edBd|f2df edBd|A2BA B3c|1 d3c dage:|2 dBAF D3C||

